!!!OTL-incipit: ES HATT EIN BAUR EIN JUNGES WEIB
!!!ARE: Europa, Mitteleuropa, Deutschland
!!!SCT: Z0125
!!!TXL: @@DE
!!!YEM: Copyright 1995, estate of Helmut Schaffrath.
**kern	**text
*ICvox	*
*M2/4	*
*k[f#c#g#]	*
*A:	*
!LO:TX:a:t=Deutſch.	!
{8e	Es
=1	=1
8.a	hatt'
16b/	ein
8.a	Bau'r
16b/	ein
=2	=2
8.g#	jun-
16f#	-ges
8.e}	Weib,
{16e	ſie
=3	=3
8.f#	blieb
16f#	ſo
8.g#	gern
16g#	ʒu
=4	=4
4a	Haus;
8r}	.
{8e	Sie
=5	=5
8.a	thät
16b/	den
8.a	Mann
16b/	be-
=6	=6
8.g#	-re-
16f#	-den
8.e}	fein,
{16e	er
=7	=7
8.f#	ſollt
16f#	ſich
8.g#	ma-
16g#	-chen
=8	=8
4a	auf.
8r}	.
=|:	=|:
{8b	Sollt'
=9	=9
8.cc#	fah-
16b	-ren
8.cc#	in
16a	das
=10	=10
4dd	Heu,
8r}	.
{8cc#	ſollt'
=11	=11
8.b	fahren
16b	.
8.b	in
16b	das
=12	=12
8.ee	Heuder-
16ee	.
8.ee}	-lei,
{16cc#	ach
=13	=13
8.cc#	Heu-
16cc#	-der-
8.cc#	-lei!
16cc#	ach
=14	=14
8.ff#	Heu-
16ff#	-der-
8.ff#}	-lei!
{16dd	ſollt'
=15	=15
8.cc#	fah-
16cc#	-ren
8.b	in
16b	das
=16	=16
4.a}	Heu.
==	==
!!!AGN: Erzaehlung, lustige Romanze
!!!ONB: ESAC (Essen Associative Code) Database: ZUCCAL
!!!AMT: simple duple
!!!AIN: vox
!!!EED: Helmut Schaffrath
!!!EEV: 1.0
!!!GTL: II. Erzahlungen, lustige Romanzen, Kinder-Lieder und episch-lyrische Volks-Lieder.
!!!URL-scan: https://www.digitale-sammlungen.de/de/view/bsb11160571?page=237
!!!ENC: Anna Maria Matuszewska
!!!EEV: 2025/01/27
*-	*-
